X:1
T:Title
%%score ( 1 2 ) { ( 3 5 ) | 4 }
L:1/8
Q:1/4=160
M:3/2
K:Eb
V:1 treble nm="Church Organ, Unnamed-000"
V:2 treble 
V:3 bass nm="Church Organ, Unnamed-001"
V:5 bass 
V:4 bass 
V:1
 [B,E]4 z2 F2 G2 E2 | G2 A2 [FB]4- [DFB]4 | E4 [B,E]2 [DF]2 .[EG]2 E2 | G2 A2 [EFB]8 | %4
w: Generated~by~NoteWorthy~Composer * * *||||
 [Be]2 [Bd]2 c2- [Ac]2 [GB]4 | z4 c4 z4 | z2 z e- e2- e/ z/ e- e z z2 | %7
w: |||
 z2 z G- G z z [FB]- [FB]4- | [FB]3 [Be]- [Be]2- [Be]/ z/ z z4 | z .A3 z2 z B- B4- | %10
w: |||
 B4 z2 z F- F2- F/ z/ z | z4 z2 z F- F2- F/ z/ z | z4 z2 z G- G z z2 | %13
w: |||
 z2 z [GB]- [GB]2- [GB]/ z/ [GB]- [GB] z z B- | B4 z2 z F- F4- | F8 z4 | z12 |] %17
w: ||||
V:2
 z4 E8 | E4 E4 z4 | x12 | E4 z4 z4 | z4 .B4 z4 | [Ee]2 [Fd]2 G2 F2 [DB]4- | %6
 [DB]3 B- B A2 G- G- [G-B]2 [GB]- | [GB] [FA]2 E- E-[EA]- [EA-]/A/E- E3 D- | %8
 D3 E- E F2 [EBe]- [EBe] [DAB]2 [EGB]- | [EGB] E2- [EG]- [E-G][EA]- [EA-]/A/E- E D2 G- | %10
 G F2 [EA]- [EA] [EG]2 E- E D2 E- | E3 [EA]- [EA] [EG]2 E- E D2 [CE]- | %12
 [CE]3 [Ge]- [Ge] [Fd]2 c- c-[Fc]- [F-c]/F/[DB]- | [DB]3 e- e d2 c- c-[FAc]- [F-A-c]/[FA]/[FA]- | %14
 [FA] [CG]2 [CA]- [CA] [EG]2 E- E3 D- | D6- D[B,E]- [B,E]4- | [B,E]8 z4 |] %17
V:3
 G,4 G,2 A,2 A,2 G,2 | C4 B,8- | B,2 C2 B,2 A,2 B,4 | C4 B,8 | E2 E2 E4 E4 | %5
 G,2 B,2 B,2 =A,2 B,4- | B,3[K:treble] E- E2- E/ z/ E- E4- | %7
 E[K:bass] B,2 B,- B, A,2 F,- F,2- F,/ z/ z | z A,2 B,- B,2- B,/ z/ B,- B,2- B,/ z/ B,- | %9
 B,[K:treble] E2 D- D C2 B,- B,4- | B,3 C- C C2 C- C[K:bass] B,2 B,- | B,3 C- C B,2 C- C A,2 G,- | %12
 G,3 G,- G, B,2 B,- B, =A,2 B,- | B,3 [G,B,]- [G,B,]2- [G,B,]/ z/ G,- G, A,2 F,- | %14
 F, G,2 A,- A, B,2 C- C3 B,- | B,3 A,- A,3 G,- G,4- | G,8 z4 |] %17
V:4
 E,4 E,6 E,D, | C,2 F,2 B,,4 z2 A,2 | G,2 A,2 G,2 F,2 E,2 D,2 | C,2 F,2 B,,4 z2 A,2 | %4
 G,2 G,2 A,4 E,4 | C,2 D,2 E,2 F,2 B,,4- | B,,3 G,- G, F,2 E,- E, D,2 C,- | %7
 C, D,2 E,- E, C,2 B,,- B,,3 z | z2 z G,- G, A,2 G,- G, F,2 E,- | E, C2 B,- B, A,2 G,- G, F,2 E,- | %10
 E, D,2 C,- C, B,,2 A,,- A,,2- A,,/ z/ G,,- | G,,3 F,,- F,, G,,2 A,,- A,, B,,2 C,- | %12
 C,3 C,- C, D,2 E,- E, F,2 B,,- | B,,3 C,- C, D,2 E,- E,/ z/ F,2 D,- | %14
 D, =E,2 F,- F, G,2 A,- A,3 z | z2 z B,,- B,,3 [E,,E,]- [E,,E,]4- | [E,,E,]8 z4 |] %17
V:5
 x12 | x12 | x12 | x12 | x12 | x12 | x3[K:treble] x9 | z4[K:bass] z4 z2 z B,- | B,4 z4 z4 | %9
 x[K:treble] x11 | x9[K:bass] x3 | x12 | x12 | x12 | x12 | x12 | x12 |] %17

